storage/app/icons/phosphoricons/bold/soundcloud-logo-bold.svg

<svg xmlns="http://www.w3.org/2000/svg" fill="currentColor" viewBox="0 0 256 256"><path d="M32 120v48a12 12 0 0 1-24 0v-48a12 12 0 0 1 24 0m28-36a12 12 0 0 0-12 12v96a12 12 0 0 0 24 0V96a12 12 0 0 0-12-12m40-40a12 12 0 0 0-12 12v136a12 12 0 0 0 24 0V56a12 12 0 0 0-12-12m122.34 59.33A84 84 0 0 0 140 36a12 12 0 0 0 0 24 59.78 59.78 0 0 1 59.7 53.93 12 12 0 0 0 9.66 10.58A28 28 0 0 1 204 180h-64a12 12 0 0 0 0 24h64a52 52 0 0 0 18.34-100.67"/></svg>

<svg xmlns="http://www.w3.org/2000/svg" viewBox="0 0 256 256" fill="currentColor"><path d="M32,120v48a12,12,0,0,1-24,0V120a12,12,0,0,1,24,0ZM60,84A12,12,0,0,0,48,96v96a12,12,0,0,0,24,0V96A12,12,0,0,0,60,84Zm40-40A12,12,0,0,0,88,56V192a12,12,0,0,0,24,0V56A12,12,0,0,0,100,44Zm122.34,59.33A84,84,0,0,0,140,36a12,12,0,0,0,0,24,59.78,59.78,0,0,1,59.7,53.93,12,12,0,0,0,9.66,10.58A28,28,0,0,1,204,180H140a12,12,0,0,0,0,24h64a52,52,0,0,0,18.34-100.67Z"/></svg>
